X: 1568
T: Pençe-i Gamdan
C: Mısırlı Udî İbrahim Efendi
O: Turkey
F: http://compmusic.upf.edu/node/140
N: acemasiran--sarki--duyek--pence-i_gamdan--misirli_udi_ibrahim_efendi
N: makam= acemasiran
N: form= sarki
N: usul= duyek = 8/4
M: 8/4
L: 1/16
K: C _B   
Q: 1/4=120
%%MIDI tuningsystem comma53
F2 A2 c2 f2 f3/2e/ fd c4  | _ed cB A2 d2 cB AG AF3  | 
w:   |   | 
F2 A2 c2 f2 f3/2e/ fd c4  | (3dc=B cd (3edc de f3/2g/ ag f4  | 
w:   |   | 
a4 d3e gf ed c4  | _ed cB A2 d2 cB AG F4  | \
w:   |   | 
a4 d3e gf ed c4  | 
w:   | 
d(3c/=Bcde(3dcdefgagf4 | F2A2c2f2f3/2e/fdc4 | 
w:   |   | 
_edcBA2d2cBAGAF3 | F2A2c2f2f3/2e/fdc4 | 
w:   |   | 
d(3c=Bcde(3dcdef3/2g/agf4 | a4d3egfedc4 | 
w:   |   | 
_edcBA2d2cBAGF4 | a4d3egfedc4 | dc/(3B(3A(3d(3c(3B(3A(3G(3A(3G(3F(3E(3F4 | 
w:   |   |   | 
(3z2(3c4(3f2(3e4(3f4 | (3f2(3d2(3e2(3f2(3g(3f(3e(3d(3c4 | \
w:   |   | 
(3z2(3d(3e(3f2(3_e(3d(3c3(3B(3A2(3d2 | 
w:   | 
(3c2(3B2(3A2(3G2(3A(3G(3F(3E(3F4 | \
w:   | 
(3z2(3a4(3g2(3a(3g(3f(3e(3d4 | (3z2(3c2(3d2(3e2(3f(3g(3a(3g(3f4 | 
w:   |   | 
(3z2(3a4(3b2(3c'(3d'(3c'(3b(3a4 | \
w:   | 
(3z2(3c2(3d2(3e2(3f(3g(3a(3g(3f4 | \
w:   | 
(3f3(3_e(3d3(3c(3B3(3A(3G4 | 
w:   | 
(3c3(3B(3A2(3d2(3c(3B(3A(3G(3F4 | \
w:   | 
(3f3(3e(3d3(3c(3B3(3A(3G4 | (3c4(3d2(3e2(3f(3g(3a(3g(3f4 | 
w:   |   | 
(3z4(3c2(3f2(3e4(3f4 | (3f2(3d2(3e2(3f2(3g(3f(3e(3d(3c4 | \
w:   |   | 
(3z2(3d(3e(3f2(3_e(3d(3c3(3B(3A2(3d2 | 
w:   | 
(3c2(3B2(3A2(3G2(3A(3G(3F(3E(3F4 | \
w:   | 
(3z2(3a4(3g2(3a(3g(3f(3e(3d4 | (3d2(3c2(3d2(3e2(3f(3g(3a(3g(3f4 | 
w:   |   | 
(3z2(3a4(3b2(3c'(3d'(3c'(3b(3a4 | \
w:   | 
(3a2(3c2(3d2(3e2(3f(3g(3a(3g(3f4 | \
w:   | 
(3f3(3_e(3d3(3c(3B3(3A(3G4 | 
w:   | 
(3c3(3B(3A2(3d2(3c(3B(3A(3G(3F4 | \
w:   | 
(3f3(3e(3d3(3c(3B3(3A(3G4 | (3c4(3d2(3e2(3f(3g(3a(3g(3f4 | 
w:   |   | 
|


